frontend/web/build/img/static/logo-w.svg

<svg width="186" height="96" viewBox="0 0 186 96" fill="none" xmlns="http://www.w3.org/2000/svg">
<path d="M22.2219 68.8H28.0139V65.6H18.7019V88H22.2219V78.752H26.7659V75.552H22.2219V68.8ZM40.6459 88C40.2939 87.168 40.2619 86.368 40.2619 85.28V81.824C40.2619 79.488 39.6859 77.792 37.9259 77.056C39.4939 76.32 40.2299 74.816 40.2299 72.512V70.752C40.2299 67.296 38.6619 65.6 35.0139 65.6H29.7019V88H33.2219V78.88H34.4379C36.0379 78.88 36.7419 79.648 36.7419 81.728V85.248C36.7419 87.072 36.8699 87.424 37.0619 88H40.6459ZM34.9179 68.8C36.1659 68.8 36.7099 69.504 36.7099 71.104V73.312C36.7099 75.104 35.9099 75.68 34.5979 75.68H33.2219V68.8H34.9179ZM46.0969 68.8H52.1769V65.6H42.5769V88H52.1769V84.8H46.0969V78.24H50.9289V75.04H46.0969V68.8ZM57.8781 68.8H63.9581V65.6H54.3581V88H63.9581V84.8H57.8781V78.24H62.7101V75.04H57.8781V68.8ZM66.1394 88H75.4514V84.8H69.6594V65.6H66.1394V88ZM84.7911 65.6H79.6391L76.0551 88H79.2871L79.8951 83.936H84.2151L84.8231 88H88.3751L84.7911 65.6ZM82.0391 69.568L83.7351 80.896H80.3431L82.0391 69.568ZM97.5344 88H101.15V65.6H98.0144V79.008L94.3984 65.6H89.9824V88H93.1504V71.776L97.5344 88ZM110.551 79.648V82.848C110.551 84.448 109.847 85.024 108.727 85.024C107.607 85.024 106.903 84.448 106.903 82.848V70.752C106.903 69.152 107.607 68.544 108.727 68.544C109.847 68.544 110.551 69.152 110.551 70.752V73.152H113.879V70.976C113.879 67.392 112.087 65.344 108.631 65.344C105.175 65.344 103.383 67.392 103.383 70.976V82.624C103.383 86.208 105.175 88.256 108.631 88.256C112.087 88.256 113.879 86.208 113.879 82.624V79.648H110.551ZM119.534 68.8H125.614V65.6H116.014V88H125.614V84.8H119.534V78.24H124.366V75.04H119.534V68.8ZM138.076 65.6H132.764V88H138.3C141.82 88 143.644 86.144 143.644 82.688V80.864C143.644 78.496 142.908 76.8 141.02 76.064C142.588 75.328 143.292 73.856 143.292 71.552V70.752C143.292 67.296 141.724 65.6 138.076 65.6ZM137.852 77.92C139.452 77.92 140.124 78.56 140.124 80.64V82.592C140.124 84.256 139.484 84.8 138.3 84.8H136.284V77.92H137.852ZM137.98 68.8C139.228 68.8 139.772 69.504 139.772 71.104V72.352C139.772 74.144 138.972 74.72 137.66 74.72H136.284V68.8H137.98ZM148.996 70.752C148.996 69.152 149.7 68.544 150.82 68.544C151.94 68.544 152.644 69.152 152.644 70.752V82.848C152.644 84.448 151.94 85.056 150.82 85.056C149.7 85.056 148.996 84.448 148.996 82.848V70.752ZM145.476 82.624C145.476 86.208 147.364 88.256 150.82 88.256C154.276 88.256 156.164 86.208 156.164 82.624V70.976C156.164 67.392 154.276 65.344 150.82 65.344C147.364 65.344 145.476 67.392 145.476 70.976V82.624ZM157.428 68.8H161.108V88H164.628V68.8H168.308V65.6H157.428V68.8Z" fill="white"/>
<path fill-rule="evenodd" clip-rule="evenodd" d="M112.535 48H67.7138C65.1105 48 63 45.8896 63 43.2862V16.9169C63 7.5741 70.5739 0 79.9169 0H100.332C109.675 0 117.249 7.57388 117.249 16.9169V43.2862C117.249 45.8896 115.139 48 112.535 48ZM96.0385 39.01H84.2104C83.263 39.01 82.495 38.242 82.495 37.2945C82.495 36.3469 83.263 35.5791 84.2104 35.5791H96.0385C96.9859 35.5791 97.7539 36.3471 97.7539 37.2945C97.7539 38.242 96.9859 39.01 96.0385 39.01ZM76.8124 27.8862H103.437C105.154 27.8862 106.546 26.4942 106.546 24.7772V18.1619C106.546 16.4449 105.154 15.0529 103.437 15.0529H76.8124C75.0954 15.0529 73.7035 16.4449 73.7035 18.1619V24.7772C73.7035 26.4942 75.0954 27.8862 76.8124 27.8862Z" fill="#222126"/>
<path d="M82.812 23.8911C81.8646 23.8911 81.0966 23.1231 81.0966 22.1756V20.6811C81.0966 19.7335 81.8646 18.9657 82.812 18.9657C83.7594 18.9657 84.5275 19.7337 84.5275 20.6811V22.1756C84.5275 23.1231 83.7594 23.8911 82.812 23.8911Z" fill="#222126"/>
<path d="M97.4371 23.8911C96.4897 23.8911 95.7216 23.1231 95.7216 22.1756V20.6811C95.7216 19.7335 96.4897 18.9657 97.4371 18.9657C98.3845 18.9657 99.1525 19.7337 99.1525 20.6811V22.1756C99.1525 23.1231 98.3845 23.8911 97.4371 23.8911Z" fill="#222126"/>
<path fill-rule="evenodd" clip-rule="evenodd" d="M112.535 48H67.7138C65.1105 48 63 45.8896 63 43.2862V16.9169C63 7.5741 70.5739 0 79.9169 0H100.332C109.675 0 117.249 7.57388 117.249 16.9169V43.2862C117.249 45.8896 115.139 48 112.535 48ZM96.0385 39.01H84.2104C83.263 39.01 82.495 38.242 82.495 37.2945C82.495 36.3469 83.263 35.5791 84.2104 35.5791H96.0385C96.9859 35.5791 97.7539 36.3471 97.7539 37.2945C97.7539 38.242 96.9859 39.01 96.0385 39.01ZM76.8124 27.8862H103.437C105.154 27.8862 106.546 26.4942 106.546 24.7772V18.1619C106.546 16.4449 105.154 15.0529 103.437 15.0529H76.8124C75.0954 15.0529 73.7035 16.4449 73.7035 18.1619V24.7772C73.7035 26.4942 75.0954 27.8862 76.8124 27.8862Z" fill="white"/>
<path d="M82.812 23.8911C81.8646 23.8911 81.0966 23.1231 81.0966 22.1756V20.6811C81.0966 19.7335 81.8646 18.9657 82.812 18.9657C83.7594 18.9657 84.5275 19.7337 84.5275 20.6811V22.1756C84.5275 23.1231 83.7594 23.8911 82.812 23.8911Z" fill="white"/>
<path d="M97.4371 23.8911C96.4897 23.8911 95.7216 23.1231 95.7216 22.1756V20.6811C95.7216 19.7335 96.4897 18.9657 97.4371 18.9657C98.3845 18.9657 99.1525 19.7337 99.1525 20.6811V22.1756C99.1525 23.1231 98.3845 23.8911 97.4371 23.8911Z" fill="white"/>
</svg>

<svg width="186" height="96" viewBox="0 0 186 96" fill="none" xmlns="http://www.w3.org/2000/svg"><path d="M22.222 68.8h5.792v-3.2h-9.312V88h3.52v-9.248h4.544v-3.2h-4.544V68.8zM40.646 88c-.352-.832-.384-1.632-.384-2.72v-3.456c0-2.336-.576-4.032-2.336-4.768 1.568-.736 2.304-2.24 2.304-4.544v-1.76c0-3.456-1.568-5.152-5.216-5.152h-5.312V88h3.52v-9.12h1.216c1.6 0 2.304.768 2.304 2.848v3.52c0 1.824.128 2.176.32 2.752h3.584zm-5.728-19.2c1.248 0 1.792.704 1.792 2.304v2.208c0 1.792-.8 2.368-2.112 2.368h-1.376V68.8h1.696zm11.179 0h6.08v-3.2h-9.6V88h9.6v-3.2h-6.08v-6.56h4.832v-3.2h-4.832V68.8zm11.781 0h6.08v-3.2h-9.6V88h9.6v-3.2h-6.08v-6.56h4.832v-3.2h-4.832V68.8zM66.14 88h9.312v-3.2H69.66V65.6h-3.52V88zm18.652-22.4H79.64L76.055 88h3.232l.608-4.064h4.32L84.823 88h3.552l-3.584-22.4zm-2.752 3.968l1.696 11.328h-3.392l1.696-11.328zM97.534 88h3.616V65.6h-3.136v13.408L94.398 65.6h-4.416V88h3.168V71.776L97.534 88zm13.017-8.352v3.2c0 1.6-.704 2.176-1.824 2.176s-1.824-.576-1.824-2.176V70.752c0-1.6.704-2.208 1.824-2.208s1.824.608 1.824 2.208v2.4h3.328v-2.176c0-3.584-1.792-5.632-5.248-5.632-3.456 0-5.248 2.048-5.248 5.632v11.648c0 3.584 1.792 5.632 5.248 5.632 3.456 0 5.248-2.048 5.248-5.632v-2.976h-3.328zm8.983-10.848h6.08v-3.2h-9.6V88h9.6v-3.2h-6.08v-6.56h4.832v-3.2h-4.832V68.8zm18.542-3.2h-5.312V88h5.536c3.52 0 5.344-1.856 5.344-5.312v-1.824c0-2.368-.736-4.064-2.624-4.8 1.568-.736 2.272-2.208 2.272-4.512v-.8c0-3.456-1.568-5.152-5.216-5.152zm-.224 12.32c1.6 0 2.272.64 2.272 2.72v1.952c0 1.664-.64 2.208-1.824 2.208h-2.016v-6.88h1.568zm.128-9.12c1.248 0 1.792.704 1.792 2.304v1.248c0 1.792-.8 2.368-2.112 2.368h-1.376V68.8h1.696zm11.016 1.952c0-1.6.704-2.208 1.824-2.208s1.824.608 1.824 2.208v12.096c0 1.6-.704 2.208-1.824 2.208s-1.824-.608-1.824-2.208V70.752zm-3.52 11.872c0 3.584 1.888 5.632 5.344 5.632 3.456 0 5.344-2.048 5.344-5.632V70.976c0-3.584-1.888-5.632-5.344-5.632-3.456 0-5.344 2.048-5.344 5.632v11.648zM157.428 68.8h3.68V88h3.52V68.8h3.68v-3.2h-10.88v3.2z" fill="#fff"/><path fill-rule="evenodd" clip-rule="evenodd" d="M112.535 48H67.714A4.714 4.714 0 0163 43.286v-26.37C63 7.575 70.574 0 79.917 0h20.415c9.343 0 16.917 7.574 16.917 16.917v26.37A4.714 4.714 0 01112.535 48zm-16.496-8.99H84.21a1.715 1.715 0 010-3.43h11.83a1.715 1.715 0 110 3.43zM76.811 27.886h26.625a3.11 3.11 0 003.109-3.109v-6.615a3.11 3.11 0 00-3.109-3.11H76.812a3.109 3.109 0 00-3.108 3.11v6.615a3.109 3.109 0 003.108 3.11z" fill="#222126"/><path d="M82.812 23.891a1.715 1.715 0 01-1.715-1.715V20.68a1.715 1.715 0 113.43 0v1.495c0 .947-.768 1.715-1.715 1.715zm14.625 0a1.715 1.715 0 01-1.715-1.715V20.68a1.715 1.715 0 113.43 0v1.495c0 .947-.767 1.715-1.715 1.715z" fill="#222126"/><path fill-rule="evenodd" clip-rule="evenodd" d="M112.535 48H67.714A4.714 4.714 0 0163 43.286v-26.37C63 7.575 70.574 0 79.917 0h20.415c9.343 0 16.917 7.574 16.917 16.917v26.37A4.714 4.714 0 01112.535 48zm-16.496-8.99H84.21a1.715 1.715 0 010-3.43h11.83a1.715 1.715 0 110 3.43zM76.811 27.886h26.625a3.11 3.11 0 003.109-3.109v-6.615a3.11 3.11 0 00-3.109-3.11H76.812a3.109 3.109 0 00-3.108 3.11v6.615a3.109 3.109 0 003.108 3.11z" fill="#fff"/><path d="M82.812 23.891a1.715 1.715 0 01-1.715-1.715V20.68a1.715 1.715 0 113.43 0v1.495c0 .947-.768 1.715-1.715 1.715zm14.625 0a1.715 1.715 0 01-1.715-1.715V20.68a1.715 1.715 0 113.43 0v1.495c0 .947-.767 1.715-1.715 1.715z" fill="#fff"/></svg>
